X:2293
T:Bulgarian Tune
M:2/4
L:1/8
K:C
E|A^GAB|c>dcc|BAA^G|A3E|A^GAB|c>dcc|BAA^G
|A3c|:B>A B/2c/2d|G>A Gc|Bcde|c3 c|B>A B/2c/2d|G>A Gc|BAA^G|1A3c:|2A4


